findly-builder/apps/searchassist/src/assets/icons/editor/upload-image.svg

<svg width="64" height="64" viewBox="0 0 64 64" fill="none" xmlns="http://www.w3.org/2000/svg">
<path d="M48.5 62H15.5C12.75 62 10.5 59.75 10.5 57V9C10.5 6.25 12.75 4 15.5 4H48.5C51.25 4 53.5 6.25 53.5 9V57C53.5 59.75 51.25 62 48.5 62Z" fill="white"/>
<path d="M53.5502 48.15L43.3502 37.9C42.5502 37.1 41.5002 36.65 40.3502 36.65C39.2002 36.65 38.1502 37.1 37.3502 37.9L24.5002 50.8C24.0002 51.3 23.2502 51.3 22.7502 50.8L18.7502 46.8C17.9502 46 16.9002 45.55 15.7502 45.55C14.6002 45.55 13.5502 46 12.7502 46.8L10.4002 49.15C9.4502 50.1 8.9502 51.3 8.9502 52.6V56.95C8.9502 60.55 11.8502 63.45 15.4502 63.45H48.4502C52.0502 63.45 54.9502 60.55 54.9502 56.95V51.55C55.0002 50.3 54.5002 49.05 53.5502 48.15ZM53.5002 42.5C52.6502 42.5 52.0002 41.85 52.0002 41V30.5C52.0002 29.65 52.6502 29 53.5002 29C54.3502 29 55.0002 29.65 55.0002 30.5V41C55.0002 41.85 54.3502 42.5 53.5002 42.5ZM10.5002 43.5C9.6502 43.5 9.0002 42.85 9.0002 42V9C9.0002 5.4 11.9002 2.5 15.5002 2.5H37.5002C38.3502 2.5 39.0002 3.15 39.0002 4C39.0002 4.85 38.3502 5.5 37.5002 5.5H15.5002C13.5502 5.5 12.0002 7.05 12.0002 9V42C12.0002 42.85 11.3502 43.5 10.5002 43.5Z" fill="#98CCFD"/>
<path d="M24.8504 21.7998C24.2988 21.7998 23.7527 21.9084 23.2431 22.1195C22.7336 22.3306 22.2705 22.64 21.8805 23.03C21.4905 23.42 21.1812 23.883 20.9701 24.3925C20.759 24.9021 20.6504 25.4483 20.6504 25.9998C20.6504 26.5514 20.759 27.0975 20.9701 27.6071C21.1812 28.1166 21.4905 28.5796 21.8805 28.9697C22.2705 29.3597 22.7336 29.669 23.2431 29.8801C23.7527 30.0912 24.2988 30.1998 24.8504 30.1998C25.4019 30.1998 25.9481 30.0912 26.4577 29.8801C26.9672 29.669 27.4302 29.3597 27.8202 28.9697C28.2102 28.5796 28.5196 28.1166 28.7307 27.6071C28.9418 27.0975 29.0504 26.5514 29.0504 25.9998C29.0504 25.4483 28.9418 24.9021 28.7307 24.3925C28.5196 23.883 28.2102 23.42 27.8202 23.03C27.4302 22.64 26.9672 22.3306 26.4577 22.1195C25.9481 21.9084 25.4019 21.7998 24.8504 21.7998Z" fill="#98CCFD"/>
<path d="M53.5 2.5C50.8478 2.5 48.3043 3.55357 46.4289 5.42893C44.5536 7.3043 43.5 9.84784 43.5 12.5C43.5 15.1522 44.5536 17.6957 46.4289 19.5711C48.3043 21.4464 50.8478 22.5 53.5 22.5C56.1522 22.5 58.6957 21.4464 60.5711 19.5711C62.4464 17.6957 63.5 15.1522 63.5 12.5C63.5 9.84784 62.4464 7.3043 60.5711 5.42893C58.6957 3.55357 56.1522 2.5 53.5 2.5Z" fill="#0D6EFD"/>
<path d="M57 11H55V9C55 8.15 54.35 7.5 53.5 7.5C52.65 7.5 52 8.15 52 9V11H50C49.15 11 48.5 11.65 48.5 12.5C48.5 13.35 49.15 14 50 14H52V16C52 16.85 52.65 17.5 53.5 17.5C54.35 17.5 55 16.85 55 16V14H57C57.85 14 58.5 13.35 58.5 12.5C58.5 11.65 57.85 11 57 11Z" fill="white"/>
</svg>

<svg width="64" height="64" fill="none" xmlns="http://www.w3.org/2000/svg"><path d="M48.5 62h-33c-2.75 0-5-2.25-5-5V9c0-2.75 2.25-5 5-5h33c2.75 0 5 2.25 5 5v48c0 2.75-2.25 5-5 5Z" fill="#fff"/><path d="M53.55 48.15 43.35 37.9c-.8-.8-1.85-1.25-3-1.25s-2.2.45-3 1.25L24.5 50.8c-.5.5-1.25.5-1.75 0l-4-4c-.8-.8-1.85-1.25-3-1.25s-2.2.45-3 1.25l-2.35 2.35c-.95.95-1.45 2.15-1.45 3.45v4.35c0 3.6 2.9 6.5 6.5 6.5h33c3.6 0 6.5-2.9 6.5-6.5v-5.4c.05-1.25-.45-2.5-1.4-3.4Zm-.05-5.65c-.85 0-1.5-.65-1.5-1.5V30.5c0-.85.65-1.5 1.5-1.5s1.5.65 1.5 1.5V41c0 .85-.65 1.5-1.5 1.5Zm-43 1c-.85 0-1.5-.65-1.5-1.5V9c0-3.6 2.9-6.5 6.5-6.5h22c.85 0 1.5.65 1.5 1.5s-.65 1.5-1.5 1.5h-22C13.55 5.5 12 7.05 12 9v33c0 .85-.65 1.5-1.5 1.5Z" fill="#98CCFD"/><path d="M24.85 21.8a4.2 4.2 0 1 0 0 8.399 4.2 4.2 0 0 0 0-8.4Z" fill="#98CCFD"/><path d="M53.5 2.5a10 10 0 1 0 0 20 10 10 0 0 0 0-20Z" fill="#0D6EFD"/><path d="M57 11h-2V9c0-.85-.65-1.5-1.5-1.5S52 8.15 52 9v2h-2c-.85 0-1.5.65-1.5 1.5S49.15 14 50 14h2v2c0 .85.65 1.5 1.5 1.5S55 16.85 55 16v-2h2c.85 0 1.5-.65 1.5-1.5S57.85 11 57 11Z" fill="#fff"/></svg>
